src/images/hand.svg

<svg width="206" height="291" viewBox="0 0 206 291" fill="none" xmlns="http://www.w3.org/2000/svg">
<g clip-path="url(#clip0_10_172)">
<path d="M156.354 267.439C145.092 272.015 132.246 266.593 127.67 255.33L101.558 191.064C96.9816 179.802 102.404 166.956 113.667 162.38C124.93 157.804 137.775 163.227 142.351 174.489L168.464 238.755C173.04 250.018 167.617 262.863 156.354 267.439Z" fill="#FF7051"/>
<path d="M156.644 268.152C145.004 272.881 131.687 267.259 126.958 255.62L100.846 191.354C96.1161 179.714 101.738 166.397 113.378 161.668C125.017 156.938 138.334 162.56 143.064 174.2L169.176 238.466C173.905 250.105 168.284 263.422 156.644 268.152ZM113.956 163.092C103.104 167.502 97.8591 179.919 102.27 190.775L128.382 255.041C132.792 265.893 145.209 271.138 156.065 266.727C166.921 262.316 172.161 249.896 167.751 239.044L141.639 174.779C137.23 163.927 124.813 158.681 113.956 163.092Z" fill="black"/>
<path d="M134.126 75.8622C131.707 72.6713 127.214 69.2927 122.506 70.2589C121.757 70.4116 121.088 70.6496 120.533 70.9675C120.039 71.2415 118.028 72.9716 116.956 74.3589C116.882 74.4526 116.777 74.5052 116.665 74.5066C116.549 74.5098 116.44 74.4566 116.365 74.3697C114.431 71.9875 111.715 70.1815 108.913 69.4257C106.022 68.6427 103.291 68.9859 101.037 70.4049C99.3836 71.4427 97.9613 73.0604 96.6921 75.3433C96.6256 75.468 96.4899 75.5426 96.3505 75.5358C96.211 75.529 96.0812 75.4499 96.0201 75.3234C93.2039 69.4136 90.3265 64.9151 86.0852 59.7991C86.0497 59.7599 86.0016 59.7257 85.9309 59.6958C85.7895 59.6361 85.6964 59.5031 85.6964 59.3469C85.6829 57.4876 85.65 55.7484 85.5945 54.038L85.5481 52.6021C85.1945 41.3274 84.8897 31.5902 72.9175 25.8419C67.9857 23.4718 60.8133 23.6132 57.3456 27.9463C55.7766 29.9117 54.5691 32.4184 53.6609 35.614C53.6271 35.7351 53.542 35.838 53.4137 35.8706C53.2972 35.9082 53.1627 35.8896 53.0632 35.8129C48.6176 32.3567 40.0906 26.9415 32.9841 29.4678C26.3785 31.7368 24.0158 39.126 24.5634 44.991C25.3902 53.8864 30.2768 61.3714 34.9529 67.5214C40.0739 74.2618 46.051 80.2737 52.7179 85.4C52.7431 85.4142 52.7684 85.4283 52.7895 85.4441C52.862 85.5025 52.9086 85.5812 52.9259 85.6718C53.8573 90.6193 55.1396 95.6976 56.8416 101.196C56.8921 101.356 56.83 101.528 56.6911 101.619C46.3839 108.618 40.1143 116.16 37.5243 124.671C36.9302 126.621 36.2279 129.518 36.9708 132.092C37.6196 134.337 38.7571 136.716 40.5523 139.585C43.7015 144.632 47.848 148.854 51.8639 152.67C58.1389 158.634 63.2592 162.778 68.4659 166.101C72.6232 168.751 76.8565 170.844 81.0528 172.317C81.1555 172.353 81.2365 172.433 81.2774 172.533C81.3182 172.634 81.3155 172.747 81.2631 172.847C77.6544 179.981 79.3994 188.288 85.5041 193.052C88.5547 195.43 92.4989 197.015 97.2237 197.77C108.956 199.638 120.512 195.831 129.267 192.303L129.749 192.107C136.49 189.368 145.059 185.359 151.486 178.637C154.956 175.006 156.842 171.345 157.099 167.75C157.48 162.45 156.101 157.665 153.218 154.281C151.798 152.613 150.17 151.62 148.448 150.567C147.974 150.276 147.494 149.973 147.019 149.668C146.872 149.572 146.809 149.392 146.864 149.228L147.258 149.259L146.9 149.136C148.655 144.024 148.682 137.638 146.972 130.15C145.444 123.444 142.248 117.513 138.827 111.522C138.788 111.45 138.768 111.365 138.783 111.281C139.753 104.394 139.835 97.4336 139.034 90.5975C138.468 85.7555 137.438 80.2181 134.125 75.8479L134.126 75.8622Z" fill="white"/>
<path d="M88.5431 174.58C88.4132 174.633 88.2638 174.65 88.1158 174.622C81.5577 173.415 74.8785 170.662 68.2594 166.434C63.0334 163.099 57.892 158.94 51.5984 152.954C47.5673 149.124 43.4022 144.881 40.2218 139.792C38.407 136.888 37.2559 134.476 36.5952 132.201C35.8198 129.523 36.5377 126.556 37.15 124.555C41.32 110.837 54.2063 102.135 64.9654 96.0793C74.1052 90.9402 81.577 90.4184 86.0039 94.6095C91.8044 100.102 88.4852 109.667 87.328 112.466C83.7685 121.078 77.6402 128.811 70.0699 134.245C69.7261 134.492 69.2453 134.414 68.9982 134.07C68.7511 133.727 68.8291 133.246 69.1729 132.999C76.5131 127.732 82.4529 120.231 85.9046 111.882C86.969 109.312 90.0372 100.547 84.9451 95.728C79.685 90.7478 70.6392 94.6527 65.7193 97.4181C55.2131 103.327 42.6363 111.806 38.6229 124.996C38.0701 126.808 37.4136 129.481 38.0735 131.766C38.6923 133.902 39.7898 136.194 41.5249 138.975C44.6113 143.916 48.6979 148.074 52.6531 151.837C58.8732 157.75 63.9421 161.851 69.083 165.132C75.536 169.252 82.0342 171.933 88.3923 173.104C88.8084 173.179 89.0853 173.583 89.0103 174C88.963 174.268 88.7802 174.479 88.5456 174.574L88.5431 174.58Z" fill="black"/>
<path d="M106.055 136.075C105.661 136.235 105.213 136.046 105.053 135.653C102.68 129.812 91.686 123.456 80.5199 123.692C80.095 123.704 79.7421 123.364 79.7364 122.941C79.7249 122.516 80.0648 122.163 80.4872 122.158C91.44 121.925 103.587 127.959 106.477 135.074C106.638 135.468 106.448 135.915 106.055 136.075Z" fill="black"/>
<path d="M111.126 124.383C108.872 125.299 106.229 125.006 103.266 123.505C99.6726 121.69 97.0136 118.138 94.8892 112.332C90.3768 99.9893 90.6262 86.9905 95.573 76.6621C96.5396 74.6437 98.1348 71.7695 100.829 70.0744C103.186 68.5943 106.018 68.2346 109.014 69.0481C112.846 70.083 116.382 72.9327 118.236 76.4751C121.305 82.3458 120.981 89.1066 120.336 96.0959C120.275 96.7749 120.212 97.6058 120.142 98.5519C119.591 106.133 118.563 120.244 111.957 123.977C111.687 124.131 111.405 124.265 111.124 124.379L111.126 124.383ZM102.872 70.7528C102.461 70.9196 102.052 71.1251 101.648 71.3817C99.8563 72.5101 98.3641 74.4004 96.9591 77.334C92.1874 87.2886 91.9617 99.853 96.3317 111.81C98.3121 117.224 100.734 120.507 103.961 122.139C106.849 123.602 109.22 123.766 111.202 122.649C117.089 119.319 118.118 105.223 118.611 98.4468C118.681 97.4907 118.74 96.6513 118.806 95.9606C119.431 89.2091 119.752 82.6935 116.878 77.193C115.216 74.0165 112.051 71.4655 108.618 70.5368C107.116 70.1317 104.996 69.8896 102.876 70.7511L102.872 70.7528Z" fill="black"/>
<path d="M130.298 126.718C128.136 127.596 125.704 127.774 123.454 126.755C121.647 125.937 120.096 124.424 118.706 122.133L118.472 121.75C117.294 119.812 116.364 118.281 115.907 115.918C115.826 115.502 116.101 115.098 116.517 115.017C116.933 114.935 117.338 115.21 117.419 115.626C117.824 117.717 118.648 119.071 119.788 120.952L120.022 121.335C121.242 123.353 122.572 124.668 124.085 125.352C127.495 126.895 131.603 124.943 133.734 122.32C136.195 119.294 137.063 115.231 137.589 111.659C138.611 104.731 138.715 97.6934 137.895 90.7381C137.343 86.0514 136.36 80.7002 133.208 76.5475C130.991 73.6259 126.916 70.5171 122.735 71.3764C122.108 71.5041 121.555 71.7044 121.089 71.9623C120.54 72.2684 117.906 74.6662 117.496 75.5898C117.321 75.9779 116.87 76.1517 116.483 75.9816C116.095 75.8073 115.921 75.3556 116.091 74.9692C116.689 73.618 119.648 71.0102 120.339 70.6217C120.944 70.2834 121.643 70.0335 122.426 69.8713C127.31 68.8681 131.948 72.3391 134.437 75.6186C137.81 80.0624 138.85 85.6636 139.423 90.5567C140.253 97.6447 140.15 104.818 139.11 111.88C138.551 115.661 137.619 119.975 134.924 123.291C133.753 124.733 132.119 125.973 130.292 126.715L130.298 126.718Z" fill="black"/>
<path d="M123.544 172.079C120.678 173.244 117.673 174.138 114.58 174.731C114.164 174.812 113.759 174.537 113.678 174.121C113.597 173.705 113.872 173.3 114.288 173.219C126.752 170.83 137.749 163.354 143.706 153.216C144.648 151.608 145.342 150.154 145.819 148.769C147.507 143.866 147.521 137.689 145.858 130.413C144.358 123.836 141.15 117.9 137.723 111.892C137.514 111.523 137.64 111.052 138.01 110.843C138.379 110.635 138.85 110.761 139.058 111.13C142.548 117.244 145.811 123.29 147.36 130.071C149.084 137.63 149.058 144.09 147.277 149.27C146.766 150.752 146.033 152.3 145.038 153.997C140.344 161.992 132.638 168.389 123.55 172.082L123.544 172.079Z" fill="black"/>
<path d="M129.894 192.477C129.735 192.542 129.576 192.607 129.421 192.67C120.618 196.212 108.998 200.04 97.1712 198.158C92.38 197.395 88.3752 195.781 85.2731 193.361C78.9846 188.457 77.2073 179.913 80.9585 172.59C81.1522 172.213 81.6141 172.064 81.9948 172.256C82.3712 172.45 82.5199 172.912 82.3279 173.293C78.8659 180.055 80.428 187.636 86.2173 192.152C89.111 194.408 92.8784 195.919 97.415 196.643C108.867 198.468 120.23 194.715 128.848 191.248C135.669 188.5 144.317 184.494 150.665 177.853C153.943 174.422 155.729 170.997 155.963 167.68C156.319 162.682 155.036 158.19 152.354 155.038C151.047 153.504 149.496 152.557 147.85 151.557C147.208 151.168 146.546 150.763 145.881 150.316C145.53 150.078 145.434 149.6 145.672 149.249C145.91 148.898 146.388 148.802 146.739 149.04C147.373 149.471 148.02 149.862 148.648 150.241C150.323 151.264 152.059 152.317 153.521 154.041C156.469 157.501 157.878 162.386 157.492 167.791C157.227 171.476 155.302 175.222 151.771 178.917C145.368 185.614 136.78 189.685 129.892 192.483L129.894 192.477Z" fill="black"/>
<path d="M85.1463 95.3582C85.0625 95.3923 84.9736 95.4138 84.8804 95.4126C84.4555 95.4241 84.1001 95.0901 84.0885 94.6652C83.8652 86.7988 84.0768 80.1469 84.2837 73.7117C84.4896 67.2379 84.6857 61.1245 84.4517 54.0727L84.4052 52.6368C84.0496 41.2849 83.7674 32.3245 72.4234 26.8725C67.9943 24.7424 61.3095 24.8224 58.2415 28.6612C54.5352 33.2963 53.5792 40.3629 52.9758 46.6272C50.9142 67.9973 52.2931 82.8047 58.0556 101.264C58.1821 101.672 57.956 102.1 57.5485 102.227C57.1411 102.353 56.7123 102.127 56.5858 101.72C50.7507 83.0457 49.3584 68.073 51.4398 46.4751C52.0663 39.9915 53.0654 32.6584 57.0344 27.6969C60.6214 23.2128 68.0145 23.05 73.0853 25.4857C85.2721 31.3421 85.5809 41.1851 85.9385 52.5899L85.9833 54.0216C86.2175 61.122 86.0216 67.2598 85.8159 73.758C85.6105 80.173 85.4005 86.8047 85.6218 94.6183C85.6287 94.9475 85.4337 95.2366 85.1446 95.354L85.1463 95.3582Z" fill="black"/>
<path d="M53.2695 85.8447C53.0265 85.9434 52.7366 85.9148 52.5106 85.743C45.7991 80.5909 39.7865 74.5397 34.6359 67.7624C29.9327 61.5698 25.0063 54.0228 24.1689 45.0293C23.6165 39.0442 26.0942 31.5057 32.8545 29.1006C40.7958 26.2742 50.4528 33.1488 54.2354 36.2348C54.5635 36.5018 54.6149 36.9886 54.3437 37.3185C54.0768 37.6466 53.5899 37.698 53.2601 37.4268C50.4695 35.1484 40.7795 27.9162 33.3663 30.5525C27.3864 32.6795 25.1977 39.4757 25.7033 44.8891C26.5018 53.4982 31.29 60.8133 35.8604 66.8353C40.9281 73.5047 46.8453 79.4531 53.4454 84.5235C53.7803 84.7829 53.8442 85.2646 53.5865 85.6036C53.5006 85.7166 53.3868 85.797 53.2653 85.8464L53.2695 85.8447Z" fill="black"/>
<path d="M96.4604 77.2242C96.0833 77.3774 95.6482 77.2076 95.4723 76.8348C92.5201 70.458 89.6423 65.8864 85.2023 60.5338C84.9318 60.2044 84.9754 59.7229 85.3048 59.4524C85.63 59.1835 86.1157 59.2254 86.3862 59.5548C90.9167 65.022 93.8563 69.6856 96.8672 76.1948C97.044 76.5819 96.8768 77.0355 96.4915 77.2164C96.4789 77.2216 96.4705 77.225 96.4579 77.2301L96.4604 77.2242Z" fill="black"/>
<path d="M145.886 213.488C146.522 215.055 147.199 216.66 148.402 217.855C149.599 219.048 151.461 219.737 153.025 219.092C153.511 218.894 153.956 218.562 154.229 218.114C154.864 217.07 154.451 215.729 154.015 214.584C151.646 208.297 149.25 201.957 145.668 196.276C144.996 195.211 144.254 194.141 143.181 193.484C142.108 192.826 140.624 192.682 139.637 193.459C137.056 195.494 144.706 210.585 145.887 213.492L145.886 213.488Z" fill="white"/>
<path d="M153.719 232.635C154.291 234.199 155.174 235.734 156.588 236.619C158.002 237.504 160.031 237.549 161.212 236.371C162.112 235.473 162.344 234.075 162.121 232.828C161.902 231.58 161.287 230.438 160.682 229.322C159.486 227.113 157.892 224.632 155.387 224.424C150.4 224.01 152.873 230.337 153.716 232.64L153.719 232.635Z" fill="white"/>
</g>
<defs>
<clipPath id="clip0_10_172">
<rect width="112.731" height="268.079" fill="white" transform="translate(0 42.4353) rotate(-22.1127)"/>
</clipPath>
</defs>
</svg>

<svg width="206" height="291" fill="none" xmlns="http://www.w3.org/2000/svg"><g clip-path="url(#a)"><path d="M156.354 267.439c-11.262 4.576-24.108-.846-28.684-12.109l-26.112-64.266c-4.576-11.262.846-24.108 12.109-28.684 11.263-4.576 24.108.847 28.684 12.109l26.113 64.266c4.576 11.263-.847 24.108-12.11 28.684z" fill="#FF7051"/><path d="M156.644 268.152c-11.64 4.729-24.957-.893-29.686-12.532l-26.112-64.266c-4.73-11.64.892-24.957 12.532-29.686 11.639-4.73 24.956.892 29.686 12.532l26.112 64.266c4.729 11.639-.892 24.956-12.532 29.686zm-42.688-105.06c-10.852 4.41-16.097 16.827-11.686 27.683l26.112 64.266c4.41 10.852 16.827 16.097 27.683 11.686 10.856-4.411 16.096-16.831 11.686-27.683l-26.112-64.265c-4.409-10.852-16.826-16.098-27.683-11.687z" fill="#000"/><path d="M134.126 75.862c-2.419-3.19-6.912-6.57-11.62-5.603-.749.153-1.418.39-1.973.709-.494.273-2.505 2.004-3.577 3.39a.375.375 0 0 1-.291.149.385.385 0 0 1-.3-.137c-1.934-2.383-4.65-4.189-7.452-4.944-2.891-.783-5.622-.44-7.876.979-1.653 1.038-3.076 2.655-4.345 4.938a.37.37 0 0 1-.341.193.386.386 0 0 1-.33-.213c-2.817-5.91-5.695-10.408-9.936-15.524a.422.422 0 0 0-.154-.103.376.376 0 0 1-.235-.35c-.013-1.858-.046-3.598-.102-5.308l-.046-1.436c-.353-11.275-.658-21.012-12.63-26.76-4.932-2.37-12.105-2.229-15.572 2.104-1.57 1.966-2.777 4.472-3.685 7.668a.351.351 0 0 1-.247.257.386.386 0 0 1-.35-.058c-4.446-3.456-12.973-8.872-20.08-6.345-6.606 2.269-8.968 9.658-8.42 15.523.826 8.895 5.713 16.38 10.389 22.53A95.19 95.19 0 0 0 52.718 85.4a.38.38 0 0 1 .208.272c.931 4.947 2.214 10.026 3.916 15.524a.371.371 0 0 1-.15.423c-10.308 6.999-16.578 14.541-19.168 23.052-.594 1.95-1.296 4.847-.553 7.421.649 2.245 1.786 4.624 3.581 7.493 3.15 5.047 7.296 9.269 11.312 13.085 6.275 5.964 11.395 10.108 16.602 13.431 4.157 2.65 8.39 4.743 12.587 6.216a.38.38 0 0 1 .21.53c-3.609 7.134-1.864 15.441 4.241 20.205 3.05 2.378 6.995 3.963 11.72 4.718 11.732 1.868 23.288-1.939 32.043-5.467l.482-.196c6.741-2.739 15.31-6.748 21.737-13.47 3.47-3.631 5.356-7.292 5.613-10.887.381-5.3-.998-10.085-3.881-13.469-1.42-1.668-3.048-2.661-4.77-3.714a83.949 83.949 0 0 1-1.429-.899.38.38 0 0 1-.155-.44l.394.031-.358-.123c1.755-5.112 1.782-11.498.072-18.986-1.528-6.706-4.724-12.637-8.145-18.628a.372.372 0 0 1-.044-.241 80.898 80.898 0 0 0 .251-20.684c-.566-4.841-1.596-10.379-4.909-14.75l.001.015z" fill="#fff"/><path d="M88.543 174.58a.761.761 0 0 1-.427.042c-6.558-1.207-13.237-3.96-19.857-8.188-5.226-3.335-10.367-7.494-16.66-13.48-4.032-3.83-8.197-8.073-11.377-13.162-1.815-2.904-2.966-5.316-3.627-7.591-.775-2.678-.057-5.645.555-7.646 4.17-13.718 17.056-22.42 27.815-28.476 9.14-5.139 16.612-5.66 21.039-1.47 5.8 5.493 2.481 15.058 1.324 17.857-3.56 8.612-9.688 16.345-17.258 21.779a.769.769 0 0 1-.897-1.246c7.34-5.267 13.28-12.768 16.732-21.117 1.064-2.57 4.132-11.335-.96-16.154-5.26-4.98-14.306-1.075-19.226 1.69-10.506 5.909-23.083 14.388-27.096 27.578-.553 1.812-1.21 4.485-.55 6.77.62 2.136 1.717 4.428 3.452 7.209 3.086 4.941 7.173 9.099 11.128 12.862 6.22 5.913 11.29 10.014 16.43 13.295 6.453 4.12 12.951 6.801 19.31 7.972a.772.772 0 0 1 .153 1.47l-.003.006z" fill="#000"/><path d="M106.055 136.075a.769.769 0 0 1-1.002-.422c-2.373-5.841-13.367-12.197-24.533-11.961a.763.763 0 0 1-.784-.751.763.763 0 0 1 .751-.783c10.953-.233 23.1 5.801 25.99 12.916a.767.767 0 0 1-.422 1.001zM111.126 124.383c-2.254.916-4.897.623-7.86-.878-3.593-1.815-6.252-5.367-8.377-11.173-4.512-12.343-4.263-25.341.684-35.67.967-2.018 2.562-4.893 5.256-6.588 2.357-1.48 5.189-1.84 8.185-1.026 3.832 1.035 7.368 3.885 9.222 7.427 3.069 5.87 2.745 12.632 2.1 19.62-.061.68-.124 1.51-.194 2.457-.551 7.581-1.579 21.692-8.185 25.425-.27.154-.552.288-.833.402l.002.004zm-8.254-53.63c-.411.167-.82.372-1.224.629-1.792 1.128-3.284 3.018-4.689 5.952-4.772 9.955-4.997 22.519-.627 34.476 1.98 5.414 4.402 8.697 7.629 10.329 2.888 1.463 5.259 1.627 7.241.51 5.887-3.33 6.916-17.426 7.409-24.202.07-.956.129-1.796.195-2.486.625-6.752.946-13.267-1.928-18.768-1.662-3.177-4.827-5.727-8.26-6.656-1.502-.405-3.622-.647-5.742.214l-.004.002z" fill="#000"/><path d="M130.298 126.718c-2.162.878-4.594 1.056-6.844.037-1.807-.818-3.358-2.331-4.748-4.622l-.234-.383c-1.178-1.938-2.108-3.469-2.565-5.832a.77.77 0 0 1 1.512-.292c.405 2.091 1.229 3.445 2.369 5.326l.234.383c1.22 2.018 2.55 3.333 4.063 4.017 3.41 1.543 7.518-.409 9.649-3.032 2.461-3.026 3.329-7.089 3.855-10.661a79.558 79.558 0 0 0 .306-20.92c-.552-4.688-1.535-10.039-4.687-14.192-2.217-2.921-6.292-6.03-10.473-5.17a5.781 5.781 0 0 0-1.646.585c-.549.306-3.183 2.704-3.593 3.628a.77.77 0 0 1-1.013.392.77.77 0 0 1-.392-1.013c.598-1.351 3.557-3.959 4.248-4.347.605-.339 1.304-.588 2.087-.75 4.884-1.004 9.522 2.467 12.011 5.747 3.373 4.443 4.413 10.045 4.986 14.938a81.409 81.409 0 0 1-.313 21.323c-.559 3.781-1.491 8.095-4.186 11.411a11.783 11.783 0 0 1-4.632 3.424l.006.003z" fill="#000"/><path d="M123.544 172.079a47.64 47.64 0 0 1-8.964 2.652.772.772 0 0 1-.902-.61.772.772 0 0 1 .61-.902c12.464-2.389 23.461-9.865 29.418-20.003.942-1.608 1.636-3.062 2.113-4.447 1.688-4.903 1.702-11.08.039-18.356-1.5-6.577-4.708-12.513-8.135-18.521a.769.769 0 0 1 1.335-.762c3.49 6.114 6.753 12.16 8.302 18.941 1.724 7.559 1.698 14.019-.083 19.199-.511 1.482-1.244 3.03-2.239 4.727-4.694 7.995-12.4 14.392-21.488 18.085l-.006-.003z" fill="#000"/><path d="m129.894 192.477-.473.193c-8.803 3.542-20.423 7.37-32.25 5.488-4.791-.763-8.796-2.377-11.898-4.797-6.288-4.904-8.066-13.448-4.314-20.771a.772.772 0 0 1 1.036-.334.773.773 0 0 1 .333 1.037c-3.462 6.762-1.9 14.343 3.89 18.859 2.893 2.256 6.66 3.767 11.197 4.491 11.452 1.825 22.815-1.928 31.433-5.395 6.821-2.748 15.469-6.754 21.817-13.395 3.278-3.431 5.064-6.856 5.298-10.173.356-4.998-.927-9.49-3.609-12.642-1.307-1.534-2.858-2.481-4.504-3.481a49.056 49.056 0 0 1-1.969-1.241.77.77 0 0 1 .858-1.276c.634.431 1.281.822 1.909 1.201 1.675 1.023 3.411 2.076 4.873 3.8 2.948 3.46 4.357 8.345 3.971 13.75-.265 3.685-2.19 7.431-5.721 11.126-6.403 6.697-14.991 10.768-21.879 13.566l.002-.006zM85.146 95.358a.77.77 0 0 1-1.058-.693c-.223-7.866-.011-14.518.196-20.953.206-6.474.402-12.588.168-19.64l-.047-1.435c-.355-11.352-.638-20.313-11.982-25.765-4.429-2.13-11.114-2.05-14.181 1.79-3.707 4.634-4.663 11.7-5.266 17.965-2.062 21.37-.683 36.178 5.08 54.637a.767.767 0 0 1-.508.963.768.768 0 0 1-.962-.507c-5.835-18.674-7.228-33.647-5.146-55.245.626-6.483 1.625-13.817 5.594-18.778 3.587-4.484 10.98-4.647 16.051-2.211 12.187 5.856 12.496 15.7 12.854 27.104l.044 1.432c.234 7.1.039 13.238-.167 19.736-.206 6.415-.416 13.047-.194 20.86a.773.773 0 0 1-.477.736l.001.004z" fill="#000"/><path d="M53.27 85.845a.773.773 0 0 1-.76-.102 95.536 95.536 0 0 1-17.874-17.98c-4.703-6.193-9.63-13.74-10.467-22.734-.553-5.985 1.925-13.523 8.686-15.928 7.94-2.827 17.598 4.048 21.38 7.134a.77.77 0 1 1-.975 1.192c-2.79-2.279-12.48-9.51-19.894-6.875-5.98 2.127-8.168 8.924-7.663 14.337.799 8.61 5.587 15.924 10.157 21.946a94.073 94.073 0 0 0 17.585 17.689c.335.259.4.74.142 1.08a.762.762 0 0 1-.322.242l.005-.001zM96.46 77.224a.773.773 0 0 1-.988-.39c-2.952-6.376-5.83-10.948-10.27-16.3a.767.767 0 1 1 1.184-.979c4.53 5.467 7.47 10.13 10.481 16.64a.772.772 0 0 1-.41 1.035l.003-.006z" fill="#000"/><path d="M145.886 213.488c.636 1.567 1.313 3.172 2.516 4.367 1.197 1.193 3.059 1.882 4.623 1.237.486-.198.931-.53 1.204-.978.635-1.044.222-2.385-.214-3.53-2.369-6.287-4.765-12.627-8.347-18.308-.672-1.065-1.414-2.135-2.487-2.792-1.073-.658-2.557-.802-3.544-.025-2.581 2.035 5.069 17.126 6.25 20.033l-.001-.004zM153.719 232.635c.572 1.564 1.455 3.099 2.869 3.984 1.414.885 3.443.93 4.624-.248.9-.898 1.132-2.296.909-3.543-.219-1.248-.834-2.39-1.439-3.506-1.196-2.209-2.79-4.69-5.295-4.898-4.987-.414-2.514 5.913-1.671 8.216l.003-.005z" fill="#fff"/></g><defs><clipPath id="a"><path fill="#fff" transform="rotate(-22.113 108.585 21.218)" d="M0 0h112.731v268.079H0z"/></clipPath></defs></svg>
